X:1
T:He Will Answer Every Prayer
T:Daniel Brink Towner
T:He Will Answer Every Prayer
T:Public Domain
T:Public Domain
C:Daniel Brink Towner
Z:Public Domain
%%score ( 1 2 ) 3
L:1/8
M:4/4
K:Eb
V:1 treble 
V:2 treble 
V:3 bass 
V:1
 E2 [EG]2 [GB]3 [GB] | [Ac]2 [GB]2 [GB]2 [EG]2 | [DB]2 [DF]2 [FB]3 [FB] | [Ac]2 [GB]2 [EG]4 | %4
w: 1.~God has giv- en|His prom- ise That|He hears and an-|swers prayer. He|
w: 2.~He will not with-|one bless- ing, He|will give you what|is best. God|
w: 3.~He can hear the|pe- ti- tion, And|the smal- lest, o-|ver there. Un-|
w: 4.~Take to God your|and fail- ures, An-|y time and an-|y- where. No|
 E2 [EG]2 [GB]3 [GB] | [Ac]2 [GB]2 [GB]2 [EG]2 | EE[EG]E [DF]2 [DF]2 | E6 || %8
w: will heed your sup-|pli- ca- tion If|you cast on Him your care.||
w: will an- swer by|His Spir- it, Ev-|ery one who makes re- quest.|He|
w: to God pray with-|out ceas- ing, He|will an- swer ev- ery prayer.||
w: one ev- er goes|un- an- swered, For|He an- swers ev- ery prayer.||
"^Refrain" B2 (EE) [Ec] [EB]3 | (EE)DD [EG]4 | B2 (EE) [Ec] [EB]3 | (EE)EE [DF]4 | %12
w: ||||
w: will an- * swer ev-|pray- * er, He will|ev- ery * pray- er,|to * Him in faith|
w: ||||
w: ||||
 [EG]2 [EG]2 [B,F]2 [B,E]2 | [EB]2 [EB]2 [Ec] [EB]3 | EE[EG]E [DF]2 [DF]2 | E6 z2 |] %16
w: ||||
w: ing, He will an-|swer ev- ery prayer.|||
w: ||||
w: ||||
V:2
 E2 x6 | x8 | x8 | x8 | x8 | x8 | x8 | x6 || x2 B2 x4 | E2 F2 x4 | x2 B2 x4 | G2 F2 x4 | x8 | x8 | %14
w: you||||||||||||||
w: hold||||||||ery|an- swer|Go|be- liev-|||
w: great||||||||||||||
w: plans||||||||||||||
 x8 | E6 x2 |] %16
w: ||
w: ||
w: ||
w: ||
V:3
 [E,G,]2 [E,B,]2 [E,E]3 [E,E] | [E,E]2 [E,E]2 [E,E]2 [E,B,]2 | [B,,B,]2 [B,,B,]2 [B,,D]3 [B,,D] | %3
w: ~ ~ ~ ~|~ ~ ~ ~|~ ~ ~ ~|
 [E,E]2 [E,E]2 [E,B,]4 | [E,G,]2 [E,B,]2 [E,E]3 [E,E] | [E,E]2 [E,E]2 [E,E]2 [E,B,]2 | %6
w: ~ ~ ~|~ ~ ~ ~|~ ~ ~ ~|
 [G,,B,][G,,B,][B,,B,][B,,G,] [B,,B,]2 [B,,A,]2 | [E,G,]6 || z2 [E,G,][E,G,] [E,A,] [E,G,]3 | %9
w: ~ ~ ~ ~ ~ ~|~|He will an- swer,|
 [G,,B,][G,,B,][B,,B,][B,,B,] [E,B,]4 | z2 [E,G,][E,G,] [E,A,] [E,G,]3 | %11
w: an- swer ev- ’ry prayer,|He will an- swer,|
 [E,B,][E,B,][F,=A,][F,A,] [B,,B,]4 | [E,B,]2 [E,B,]2 [E,A,]2 [E,G,]2 | %13
w: an- swer ev- ’ry prayer,||
 [E,G,]2 [E,G,]2 [E,A,] [E,G,]3 | [G,,B,][G,,B,][B,,B,][B,,G,] [B,,B,]2 [B,,A,]2 | [E,G,]6 z2 |] %16
w: |||

